X: 1765
T: Severim Her Güzeli
C: Lem´i Atlı
O: Turkey
F: http://compmusic.upf.edu/node/140
N: hicaz--sarki--curcuna--severim_her--lemi_atli
N: makam= hicaz
N: form= sarki
N: usul= curcuna = 10/8
M: 10/8
L: 1/16
K: C _7/8B ^f ^c 
Q: 1/4=180
%%MIDI tuningsystem comma53
e4 d2e4e4e2 {=f}e2d2  | =f4 e2e2 d2d2 c2{d}c6  | \
w:  (Ah)  Se ve rim   |  her  *  gü *  ze *  *  li   | 
{d}e4 d2d4d4d4c2  | c4 B2B4B2 A2{B}A4d2  | 
w:  *  sen *  den_ e ser  |  dir  *  di ye *  *  rek_ a  | 
e8-e2g2 =fed4c2  | e8-e2c2 B2A6  | e4 d2e4e4e2 {=f}e2d2  | \
w:  man  *  *  *  *  a  |  man  SAZ  |  (Ah)  Se ve rim   | 
=f4 e2e2 d2d2 c2{d}c6  | 
w:  her  *  gü *  ze *  *  li   | 
{d}e4 d2d4d4d4c2  | c4 B2B4B2 A2{B}A4d2  | \
w:  *  sen *  den_ e ser  |  dir  *  di ye *  *  rek_ a  | 
e8-e2g2 =fed4c2  | d8-d2z2 d2e2 f2g2  | 
w:  man  *  *  *  *  a  |  man   SAZ  | 
g4 f2e4f2 g2a4g2  | =b4 a2a2 g2^2/4f2 e2d2 e2^f2  | \
w:  Kok *  la rım   |  gon *  ca *  la *  rı   | 
g4 =f2f2 e2e2 d2d4c2  | 
w:  sen  *  gi *  bi  *  ter  | 
c4 B2B4B3AG4c2  | d8-d2=fe dcB2 B2AG  | \
w:  dir  *  di ye *  rek_ a  |  man  *  *  *  *  *  *  a  | 
{A}G12 A2F2 G2A2  | 
w:  *  man   SAZ  | 
G4 A2A4(3c2d2e2=f6  | =f4 e2e2 d2d2 c2{d}c6  | \
w:  Kok *  la rım   |  gon *  ca *  la *  *  rı   | 
{d}e4 d2d4d4d4c2  | c4 B2B4B2 A2G4c2  | 
w:  *  sen  *  gi bi  ter  |  dir  *  di ye *  rek_ a  | 
d8-d2=fe dcB4BA  | A8-A2f2 g2a3gba  | \
w:  man  *  *  *  *  *  a  |  man   SAZ  | 
a4 g2a4a4a4g2  | 
w:  *  Çe ke rim   | 
a2=b2 a2a4a8g2  | g4 ^2/4f2^f2 e2a2 g2=f3ed2  | \
w:  sî *  ne ye  her   |  cevr_ *  i  *  ka *  der  | 
c4 B2B4B2 A2A4a2  | 
w:  dir  *  di ye *  rek_ a  | 
_b8-_b2b2 a2g4a2  | _b16-_b4  | z4 _b2b2 a2a8z2  | \
w:  man  *  *  *  a  |  man    |  Çe ke *  rim   | 
a2{b}a2 g2g4g4g4f2  | 
w:  sî *  *  *  ne ye  her   | 
f6f2 e2a2 g2=f3ed2  | c4 B2B4B2 A2A4d2  | \
w:  cevr_ i  *  ka *  der  |  dir  *  di ye *  rek_ a  | 
e8-e2g2 =fed4c2  | 
w:  man  *  *  *  *  a  | 
d16-d4  | g4 f2e4f2 g2a4g2  | =b4 a2a2 g2^2/4f2 e2d2 e2^f2  | \
w:  man    |  Kok *  la rım   |  gon *  ca *  la *  rı   | 
g4 =f2f2 e2e2 d2d4c2  | 
w:  sen  *  gi *  bi  *  ter  | 
c4 B2B4B3AG4c2  | d8-d2=fe dcB2 B2AG  | \
w:  dir  *  di ye *  rek_ a  |  man  *  *  *  *  *  *  a  | 
{A}G12 A2F2 G2A2  | 
w:  *  man   SAZ  | 
G4 A2A4(3c2d2e2=f6  | =f4 e2e2 d2d2 c2{d}c6  | \
w:  Kok *  la rım   |  gon *  ca *  la *  *  rı   | 
{d}e4 d2d4d4d4c2  | c4 B2B4B2 A2G4c2  | 
w:  *  sen  *  gi bi  ter  |  dir  *  di ye *  rek_ a  | 
d8-d2=fe dcB4BA  | A8-A2|
w:  man  *  *  *  *  *  a  |  man    | 


